X: 1
T: Planxty Robert Jordan
M: 4/4
L: 1/8
R: hornpipe
K: Gmaj
|: d2 Bd e2 d2 | B2 A2 G2 ED | E2 G2 G2 AB | d2 B2 A2 z2 |
B2 d2 e2 d2 | dBAG g2 g2 | gaba aged | e6 e2 | efge dedB |
AGAB d2 Be  | d2 BA G2 BA | GE A2 A2 GA |
BAGF GABG | AGED EFGE | dedB dBAG | B4 G4 :|
|: d2 AB deBe | dBAG G2 G2 | GABA GDAG | E4 e2 e2 |
d/B/A GA B2 g2 | d/B/A GA B2 g2 | a2 ge dedB | A4 A2 BG |
E2 G2 GAGE | DEGA BABG | AGAB dBdA | G2 e2 e2 ed |
B2 BA G2 G2 | A2 AG E2 E2 | edBA GEGD | E2 G2 G4 :|
